storage/app/icons/phosphoricons/bold/certificate-bold.svg

<svg xmlns="http://www.w3.org/2000/svg" fill="currentColor" viewBox="0 0 256 256"><path d="M128 140a12 12 0 0 1-12 12H72a12 12 0 0 1 0-24h44a12 12 0 0 1 12 12m-12-52H72a12 12 0 0 0 0 24h44a12 12 0 0 0 0-24m120 79.14V228a12 12 0 0 1-17.95 10.42L196 225.82l-22 12.6A12 12 0 0 1 156 228v-24H40a20 20 0 0 1-20-20V56a20 20 0 0 1 20-20h176a20 20 0 0 1 20 20v32.86a55.87 55.87 0 0 1 0 78.28M196 160a32 32 0 1 0-32-32 32 32 0 0 0 32 32m-40 20v-12.86a56 56 0 0 1 56-92.8V60H44v120Zm56 27.32v-25.66a55.87 55.87 0 0 1-32 0v25.66l10.05-5.74a12 12 0 0 1 11.9 0Z"/></svg>

<svg xmlns="http://www.w3.org/2000/svg" viewBox="0 0 256 256" fill="currentColor"><path d="M128,140a12,12,0,0,1-12,12H72a12,12,0,0,1,0-24h44A12,12,0,0,1,128,140ZM116,88H72a12,12,0,0,0,0,24h44a12,12,0,0,0,0-24Zm120,79.14V228a12,12,0,0,1-17.95,10.42L196,225.82,174,238.42A12,12,0,0,1,156,228V204H40a20,20,0,0,1-20-20V56A20,20,0,0,1,40,36H216a20,20,0,0,1,20,20V88.86a55.87,55.87,0,0,1,0,78.28ZM196,160a32,32,0,1,0-32-32A32,32,0,0,0,196,160Zm-40,20V167.14a56,56,0,0,1,56-92.8V60H44V180Zm56,27.32V181.66a55.87,55.87,0,0,1-32,0v25.66l10.05-5.74a12,12,0,0,1,11.9,0Z"/></svg>
